X:1
T:Dirty old town
C:Ewan MacColl, Angleterre, abc file by Bernard Loffet
L:1/8
Q:280
M:2/2
K:C
 z2[G2G,2] [A2F,2][c2G,2] | [e2C,2]C,2 C,2C,2 | C,2[cC,]d [e2F,2][c2F,2] | [G2C,2]C,2 C,2C,2 | \
 C,2C,2 [e2C,2][g2C,2] | [a2F,2]F,2 F,2F,2 | F,2[gF,]e [d2G,2][c2G,2] | [e2C,2]C,2 C,2C,2 | \
 C,2[g2C,2] [a2F,2][g2G,2] | [e2C,2]C,2 C,2C,2 | C,2[cC,]d [e2F,2][c2F,2] | [G2C,2]C,2 C,2C,2 | \
 C,2C,2 [AA,]c[e2A,2] | [d2D,2]D,2 D,2D,2 | D,2D,2 [dD,]c[A2D,2] | [A2A,2]A,2 A,2A,2 | \
 A,8 | \
Z:Created with TablEdit http://www.tabledit.com/ by Bernard Loffet
